Hatter-kde/actions/16/view-sort-descending-name.svg

<?xml version="1.0" encoding="UTF-8"?>
<svg viewBox="0 0 16 16" xmlns="http://www.w3.org/2000/svg">
 <defs id="defs3051">
  <style id="current-color-scheme" type="text/css">.ColorScheme-Text {
        color:#363636;
      }</style>
 </defs>
 <path class="ColorScheme-Text" d="m2 2v1h2.375l-2.375 3.3184v0.68164h4v-1h-2l2-3v-1h-4zm8 2v8.0938l-2.2812-2.2812-0.71875 0.6875 3.2812 3.3125 0.21875 0.1875 0.21875-0.1875 3.2812-3.3125-0.71875-0.6875-2.2812 2.2812v-8.0938h-1zm-5.9062 5c-0.78324 0.0182-1.3753 0.14339-1.8125 0.34375l0.25 0.90625c0.20947-0.0729 1.0043-0.3125 1.4688-0.3125h0.0625c0.64663 0.0273 0.6875 0.25695 0.6875 0.8125v0.21875l-0.34375 0.0625c-1.5665 0.22768-2.4062 0.42281-2.4062 1.625 0 0.83789 0.61657 1.3438 1.5 1.3438 0.6102 0 0.99642-0.24767 1.4062-0.59375l0.09375 0.59375h1v-3.4688c0-1.0291-0.7196-1.5312-1.8125-1.5312h-0.09375zm0.65625 2.6875v1.125c-0.33697 0.2277-0.59409 0.375-1.0312 0.375-0.39162 0-0.59375-0.24767-0.59375-0.59375 0-0.65574 0.57997-0.77482 1.2812-0.875l0.34375-0.03125z" fill="currentColor"/>
</svg>

<svg xmlns="http://www.w3.org/2000/svg" viewBox="0 0 16 16">
  <defs id="defs3051">
    <style type="text/css" id="current-color-scheme">
      .ColorScheme-Text {
        color:#363636;
      }
      </style>
  </defs>
 <path style="fill:currentColor;fill-opacity:1;stroke:none" 
       d="M 2 2 L 2 3 L 4.375 3 L 2 6.3183594 L 2 7 L 6 7 L 6 6 L 4 6 L 6 3 L 6 2 L 2 2 z M 10 4 L 10 12.09375 L 7.71875 9.8125 L 7 10.5 L 10.28125 13.8125 L 10.5 14 L 10.71875 13.8125 L 14 10.5 L 13.28125 9.8125 L 11 12.09375 L 11 4 L 10 4 z M 4.09375 9 C 3.31051 9.0182 2.71841 9.14339 2.28125 9.34375 L 2.53125 10.25 C 2.74072 10.1771 3.53552 9.9375 4 9.9375 L 4.0625 9.9375 C 4.70913 9.9648 4.75 10.19445 4.75 10.75 L 4.75 10.96875 L 4.40625 11.03125 C 2.83976 11.25893 2 11.45406 2 12.65625 C 2 13.49414 2.61657 14 3.5 14 C 4.1102 14 4.49642 13.75233 4.90625 13.40625 L 5 14 L 6 14 L 6 10.53125 C 6 9.50211 5.2804 9 4.1875 9 L 4.09375 9 z M 4.75 11.6875 L 4.75 12.8125 C 4.41303 13.0402 4.15591 13.1875 3.71875 13.1875 C 3.32713 13.1875 3.125 12.93983 3.125 12.59375 C 3.125 11.93801 3.70497 11.81893 4.40625 11.71875 L 4.75 11.6875 z "
     class="ColorScheme-Text"
     />
</svg>
